svgs/light/tree.svg

<svg xmlns="http://www.w3.org/2000/svg" viewBox="0 0 448 512"><!--! Font Awesome Pro 6.3.0 by @fontawesome - https://fontawesome.com License - https://fontawesome.com/license (Commercial License) Copyright 2023 Fonticons, Inc. --><path d="M439.6 391.6l-68.98-79.59h15.2c25.59 0 39.5-29.17 23.19-48.48l-60.86-71.51h10.77c21.28 0 32.9-22.5 19.28-37.31l-134.9-146.5C238.3 2.796 231.2 0 224 0S209.7 2.799 204.7 8.236L69.93 154.7C56.34 169.5 67.93 192 89.21 192h10.73L39.03 263.5C22.72 282.9 36.62 312 62.22 312h15.2l-68.98 79.59c-18.1 21.91-3.811 56.4 24.69 56.4L208 447.1V496c0 8.844 7.269 16 16.11 16S240 504.8 240 496v-48l174.8 .0133C443.4 448 458.5 413.4 439.6 391.6zM414.8 415.1L240 416v-57.38l43.31-43.31c6.25-6.25 6.25-16.38 0-22.62s-16.38-6.25-22.62 0L240 313.4V176c0-8.844-7.157-16.01-16-16.01S208 167.2 208 176v80.01L188.8 230.4C183.5 223.3 173.5 221.9 166.4 227.2C159.3 232.5 157.9 242.5 163.2 249.6L208 309.3v106.7l-175.1 .0039c-.1934-.127-.7109-.8008-.8379-1.717c-.0957-.6934 .0469-1.115 .5938-1.748l114.9-132.6l-80.48-.002l102.2-120H108.5l115.5-125.6l115.6 125.6h-60.7l102.1 120H300.6l114.9 132.6c.457 .5273 .6562 .918 .5469 1.701C415.8 415.2 415.3 415.9 414.8 415.1z"/></svg>

<svg xmlns="http://www.w3.org/2000/svg" viewBox="0 0 448 512"><!-- Font Awesome Pro 6.0.0-alpha2 by @fontawesome - https://fontawesome.com License - https://fontawesome.com/license (Commercial License) --><path d="M439.607 391.586L370.631 311.986H385.828C411.422 311.986 425.328 282.799 409.015 263.484L348.158 191.98H358.924C380.203 191.98 391.828 169.479 378.203 154.666L243.334 8.156C238.334 2.719 231.178 0 224.021 0S209.711 2.719 204.711 8.156L69.933 154.666C56.342 169.479 67.933 191.98 89.215 191.98H99.949L39.029 263.484C22.717 282.799 36.623 311.986 62.215 311.986H77.414L8.435 391.586C-10.563 413.494 4.625 447.996 33.123 447.996H208V496C208 504.844 215.156 512 224 512S240 504.844 240 496V447.996C330.303 447.996 414.828 447.996 414.828 447.996C443.42 447.996 458.513 413.4 439.607 391.586ZM414.828 415.996L240 416V358.625L283.312 315.312C289.562 309.062 289.562 298.937 283.312 292.688S266.937 286.438 260.687 292.688L240 313.375V176C240 167.156 232.844 160 224 160S208 167.156 208 176V256.01L188.797 230.406C183.5 223.344 173.453 221.875 166.406 227.188C159.328 232.5 157.89 242.531 163.203 249.594L208 309.322V416.002L32.863 416.006C32.67 415.879 32.152 415.205 32.025 414.289C31.93 413.596 32.072 413.174 32.619 412.541L101.597 332.943L147.488 279.986H77.414L67.01 279.984L124.306 212.732L169.252 159.98H108.525L224.023 34.428L339.601 159.98H278.902L323.789 212.721L381.039 279.986H300.556L346.447 332.943L415.426 412.543C415.883 413.07 416.082 413.461 415.972 414.244C415.842 415.184 415.314 415.873 414.828 415.996Z"/></svg>
